!!!!SEGMENT: pl-wtm--r-2472_hertz-michal--braciom-w-sztuce.krn
!!!cenid: 18xx:2392
!!!COM: Hertz, Michał
!!!COM-rismid: pe41023359
!!!CDT: 1844/09/28-~1918
!!!CNT: Polish
!!!OTL: Braciom w sztuce
!!!PDT:
!!!AGN:
!!!SMS-siglum: PL-Wtm
!!!SMS-shelfmark: R 2472
!!!SMS-shelfwork: W
!!!SMS-variant:
!!!SMS-altvar:
!!!NIFC-rismid: 1001082540
!!!URL-scan: http://repozytorium.nifc.pl/skany/pl-wtm-nut--r2472
!!!ONB-nifc:
!!!OMD: Allegro mod. pomposo
!!!key:
**kern	**dynam	**kern	**text	**dynam
*part2	*part2	*part1	*part1	*part1
*staff2	*	*staff1	*staff1	*
*Iempty	*	*Iempty	*	*
*I"Bas 1 i 2	*	*I"Ten 1 i 2	*	*
*clefF4	*	*clefG2	*	*
*	*	*ITrd8c12	*	*
*k[f#]	*	*k[f#]	*	*
*G:	*	*G:	*	*
*M3/4	*	*M3/4	*	*
*^	*	*^	*	*
!	!	!	!LO:TX:t=P:problem=all\left, middle, right&colon; global	!LO:TX:t=P:problem=poprawki nutowe zawrzeć w 1 wersji (główny skryptor)(EZ)	!	!
!	!	!	!	!LO:TX:a:i:t=Hasło.	!	!LO:DY:b:rj
16B/	16B\	.	16d/	16d\	Hej	f
=1	=1	=1	=1	=1	=1	=1
*2\right	*	*	*	*2\right	*	*
!	!	!	!LO:N:vis=2	!	!	!
2d 2G\	2ryy	.	4g/	2g 2B\	bra-	.
.	.	.	8ryy	.	.	.
.	.	.	8f#/@	.	.	.
8G/	8G\	.	8d/	8B\	-cia	.
16r	16ryy	.	16r	16ryy	.	.
16G/	16G\	.	16B/	16B\	śpie-	.
=2	=2	=2	=2	=2	=2	=2
4G/	4E\	.	4c/	4c\	-wa-	.
4G/	4G\	.	4B/	4B\	-cy,	.
8.r	8.ryy	.	8.r	8.ryy	.	.
16G/	16G\	.	16B/	16B\	do	.
=3	=3	=3	=3	=3	=3	=3
!	!	!	!LO:N:vis=2	!	!	!
2B/	2E\	.	4e/	2e 2G\	pie-	.
.	.	.	8ryy	.	.	.
.	.	.	8c/@	.	.	.
8E/	8E\	.	8B/	8G\	-śni	.
16r	16ryy	.	16r	16ryy	.	.
16E/	16E\	.	16G/	16G\	po	.
=4	=4	=4	=4	=4	=4	=4
4E/	4C\	.	4A/	4A\	pra-	.
4E/	4E\	.	4G/	4G\	-cy,	.
8.r	8.ryy	.	8.r	8.ryy	.	.
16G/	16G\	.	16G/	16G\	Hej	.
!!LO:LB:g=original
=5	=5	=5	=5	=5	=5	=5
!	!LO:TX:b:t=cres-cen-do:problem=dynamics with extention lines	!LO:HP:t=cres-cen-do	!	!	!	!
4G/	4E\	<	4c/	4c\	bra-	.
4G/	4D\	.	4B/	4B\	-cia,	.
8.r	8.ryy	.	8.r	8.ryy	.	.
16G/	16G\	.	16G/	16G\	śpie-	.
=6	=6	=6	=6	=6	=6	=6
4G/	4C\	.	4e/	4e\	-wa-	.
4G/	4BB\	.	4d/	4d\	-cy,	.
8.r	8.ryy	[	8.r	8.ryy	.	.
16d/	16D\	.	16d/	16D\	do	.
8qqF#/@	8qqAA\@	.	.	8qqd@ 8qqB\@	.	.
8qqG/@	8qqGG\@	.	.	8qqd@ 8qqB\@	.	.
=7	=7	=7	=7	=7	=7	=7
!	!	!LO:DY:rj	!	!	!	!
2f#;/	2D;\	ff	2a;/	2c;\	pie-	.
8A/	8D\	.	8f#/	8c\	-śni	.
16r	16ryy	.	16r	16ryy	.	.
16c/	16D\	.	16d/	16F#\	po	.
=8	=8	=8	=8	=8	=8	=8
4B/	4G\	.	4g/	4G\	pra-	.
4G/	4GG\	.	4G/	4G\	-cy!	.
4r	4ryy	.	4r	4ryy	.	.
*v	*v	*	*	*	*	*
*	*	*v	*v	*	*
=||	=||	=||	=||	=||
*-	*-	*-	*-	*-
!!!system-decoration: {(s1,s2)}
!!!RDF**kern: @ = marked note, color=grey
!!!AIN: 2 empty
!!!ENC: Katarzyna Serwa
!!!END: 2021-06-10
!!!ENC: Marta Lawrence
!!!END: 2021-10-09
